brandFactory_export/1.Light/Conexiones_1Light.svg

<?xml version="1.0" encoding="UTF-8"?>
<svg width="24px" height="24px" viewBox="0 0 24 24" version="1.1" xmlns="http://www.w3.org/2000/svg" xmlns:xlink="http://www.w3.org/1999/xlink">
    <title>1.Light/Conexiones_1Light</title>
    <g id="Symbols" stroke="none" stroke-width="1" fill="none" fill-rule="evenodd">
        <g id="1.Light/Conexiones_1Light" fill="#5CB615" fill-rule="nonzero">
            <path d="M19.210084,12.2285714 C18.1008403,12.2319328 17.0319328,12.6588235 16.2285714,13.4218487 L13.9731092,11.4319328 C14.6084034,10.6756303 14.9579832,9.7210084 14.9680672,8.73613445 C14.9647059,8.55462185 14.9512605,8.37647059 14.9176471,8.19831933 L18.3058824,7.20336134 C19.0218487,8.52773109 20.6756303,9.01848739 21.9966387,8.30252101 C23.112605,7.69747899 23.6638655,6.40336134 23.3243697,5.17983193 C22.9210084,3.73109244 21.4184874,2.88067227 19.9697479,3.28403361 C18.7563025,3.62016807 17.9294118,4.74957983 17.9764706,6.01008403 C17.9731092,6.10420168 17.9731092,6.19495798 17.9764706,6.28907563 L14.6352941,7.28403361 C13.8084034,5.08235294 11.3546218,3.9697479 9.15294118,4.79663866 C8.4907563,5.04537815 7.89915966,5.45546218 7.43529412,5.98991597 L5.23697479,4.02016807 C5.52268908,3.6 5.67731092,3.10588235 5.67394958,2.59831933 C5.68067227,1.18655462 4.54117647,0.0369747899 3.12941176,0.0302225933 C1.71764706,0.0235294118 0.574789916,1.16638655 0.568067227,2.57815126 C0.561344538,3.98991597 1.70084034,5.1394958 3.11260504,5.14621849 C3.62016807,5.14957983 4.11428571,5.00168067 4.53781513,4.71932773 L6.87394958,6.7092437 C6.05378151,8.19495798 6.21848739,10.0302521 7.2907563,11.3445378 L5.30420168,13.3310924 C4.72387183,12.7670579 3.94539496,12.4532533 3.13613445,12.4571429 C1.40504202,12.4571429 0,13.8588235 0,15.5865546 C0,16.4201681 0.332773109,17.2201681 0.924369748,17.8084034 C2.14789916,19.0319328 4.12773109,19.0285714 5.3512605,17.8084034 C5.94285714,17.2168067 6.27226891,16.4168067 6.26890756,15.5798319 C6.26890756,15.0756303 6.14117647,14.5815126 5.89915966,14.1378151 L8.03697479,12.0403361 C8.77647059,12.6689076 9.71092437,13.0184874 10.6823529,13.0352941 C11.6201681,13.0285714 12.5310924,12.712605 13.2773109,12.1411765 L15.5831933,14.1310924 C15.0890756,14.8605042 14.8268908,15.7176471 14.8268908,16.5983193 C14.8302521,17.2403361 14.9714286,17.8756303 15.2436975,18.4571429 L12.7596639,19.610084 C11.9361345,18.4705882 10.3462185,18.2151261 9.20672269,19.0352941 C8.30588235,19.6840336 7.93277311,20.8436975 8.2789916,21.8957983 C8.71260504,23.2336134 10.1512605,23.9630252 11.4857143,23.5294118 C12.5378151,23.1865546 13.2470588,22.205042 13.2436975,21.0991597 C13.2403361,20.897479 13.2168067,20.6991597 13.1731092,20.5042017 L15.7781513,19.3109244 C16.6016807,20.3764706 17.8722689,20.9983193 19.2168067,21.0016807 C21.6504202,21.0016807 23.6201681,19.0285714 23.6201681,16.594958 C23.6201681,14.1613445 21.6470588,12.1915966 19.2168067,12.1882353 C19.2201681,12.1915966 19.210084,12.2285714 19.210084,12.2285714 L19.210084,12.2285714 Z M20.7226891,4.21176471 C21.6907563,4.21176471 22.4705882,4.99831933 22.4705882,5.96302521 C22.4705882,6.93109244 21.6840336,7.71092437 20.7193277,7.71092437 C19.7512605,7.71092437 18.9714286,6.92436975 18.9714286,5.95966387 C18.9714286,4.99495798 19.7546218,4.21176471 20.7226891,4.21176471 Z M3.12268908,4.15462185 C2.26218487,4.15462185 1.56302521,3.45210084 1.56302521,2.59159664 C1.56302521,1.73109244 2.26554622,1.03193277 3.12605042,1.03193277 C3.98655462,1.03193277 4.68571429,1.73445378 4.68571429,2.59495798 L4.68571429,2.60168067 C4.68571429,3.45882353 3.98991597,4.15462185 3.13277311,4.1512605 C3.12941176,4.15462185 3.12605042,4.15462185 3.12268908,4.15462185 L3.12268908,4.15462185 Z M10.6890756,22.692437 C9.82857143,22.6991597 9.12268908,22.0033613 9.11596639,21.1428571 C9.1092437,20.2823529 9.80504202,19.5764706 10.6655462,19.5697479 C11.5260504,19.5630252 12.2319328,20.2588235 12.2386555,21.1193277 L12.2386555,21.1394958 C12.2386555,22 11.5462185,22.692437 10.6890756,22.692437 L10.6890756,22.692437 Z M3.12268908,17.7714286 C1.94285714,17.7714286 0.98487395,16.8134454 0.98487395,15.6336134 C0.98487395,14.4537815 1.94285714,13.4957983 3.12268908,13.4957983 C4.30252101,13.4957983 5.2605042,14.4537815 5.2605042,15.6336134 C5.2605042,16.8134454 4.30588235,17.7714286 3.12268908,17.7714286 Z M7.37815126,8.74957983 C7.37815126,6.93109244 8.85042017,5.45882353 10.6689076,5.45882353 C12.487395,5.45882353 13.9596639,6.93109244 13.9596639,8.74957983 C13.9596639,10.5680672 12.487395,12.0403361 10.6689076,12.0403361 C8.85378151,12.0403361 7.37815126,10.5647059 7.37815126,8.74957983 Z M19.210084,20.0470588 C17.3277311,20.0470588 15.8016807,18.5176471 15.8016807,16.6352941 C15.8016807,14.7529412 17.3310924,13.2268908 19.2134454,13.2268908 C21.0957983,13.2268908 22.6218487,14.7563025 22.6218487,16.6386555 C22.6184874,18.5210084 21.092437,20.0470588 19.210084,20.0470588 L19.210084,20.0470588 Z" id="Conexiones_1Light"></path>
        </g>
    </g>
</svg>

<svg width="24" height="24" viewBox="0 0 24 24" xmlns="http://www.w3.org/2000/svg"><path d="M19.21 12.229a4.351 4.351 0 00-2.981 1.193l-2.256-1.99a4.26 4.26 0 00.995-2.696 3.202 3.202 0 00-.05-.538l3.388-.995a2.722 2.722 0 005.018-2.023 2.726 2.726 0 00-5.348.83 3.86 3.86 0 000 .28l-3.34.994a4.256 4.256 0 00-7.2-1.294L5.236 4.02c.286-.42.44-.914.437-1.422a2.554 2.554 0 10-5.106-.02 2.556 2.556 0 003.97 2.141l2.336 1.99a4.156 4.156 0 00.417 4.636L5.304 13.33a3.09 3.09 0 00-2.168-.874A3.134 3.134 0 000 15.587c0 .833.333 1.633.924 2.221A3.131 3.131 0 006.27 15.58c0-.504-.128-.998-.37-1.442l2.138-2.098c.74.629 1.674.978 2.645.995a4.323 4.323 0 002.595-.894l2.306 1.99a4.392 4.392 0 00-.756 2.467 4.44 4.44 0 00.417 1.86L12.76 19.61a2.546 2.546 0 00-4.48 2.286 2.545 2.545 0 004.893-1.392l2.605-1.193A4.359 4.359 0 0019.217 21a4.404 4.404 0 004.403-4.406 4.408 4.408 0 00-4.403-4.407c.003.004-.007.04-.007.04zm1.513-8.017a1.75 1.75 0 11-.003 3.499 1.75 1.75 0 01.003-3.5zm-17.6-.057c-.86 0-1.56-.703-1.56-1.563s.703-1.56 1.563-1.56 1.56.702 1.56 1.563v.007c0 .857-.696 1.553-1.553 1.55-.004.003-.007.003-.01.003zm7.566 18.537a1.564 1.564 0 01-1.573-1.55 1.564 1.564 0 011.55-1.572c.86-.007 1.566.689 1.573 1.55v.02c0 .86-.693 1.552-1.55 1.552zm-7.566-4.92a2.139 2.139 0 010-4.276 2.139 2.139 0 010 4.275zM7.378 8.75a3.29 3.29 0 013.29-3.291 3.29 3.29 0 013.292 3.29 3.29 3.29 0 01-3.291 3.291 3.294 3.294 0 01-3.29-3.29zM19.21 20.047a3.411 3.411 0 01-3.408-3.412 3.411 3.411 0 013.411-3.408 3.411 3.411 0 013.409 3.412 3.414 3.414 0 01-3.412 3.408z" fill="#5CB615" fill-rule="nonzero"/></svg>
